download-box.svg

<svg  viewBox="0 0 24 24" fill="currentColor"><path  d="M5 3H19C20.11 3 21 3.9 21 5V19C21 20.11 20.11 21 19 21H5C3.9 21 3 20.11 3 19V5C3 3.9 3.9 3 5 3M8 17H16V15H8V17M16 10H13.5V7H10.5V10H8L12 14L16 10Z"/></svg>

<svg fill="currentColor" viewBox="0 0 24 24"><path d="M5 3h14a2 2 0 0 1 2 2v14c0 1.11-.89 2-2 2H5a2 2 0 0 1-2-2V5c0-1.1.9-2 2-2m3 14h8v-2H8zm8-7h-2.5V7h-3v3H8l4 4z"/></svg>
